X:1
T:Fantasiant Amor
T:Fantasiant Amor
T:Joan Brudieu
C:Joan Brudieu
%%score [ 1 2 3 4 ]
L:1/8
Q:1/4=120
M:4/4
K:C
V:1 treble nm="Soprano" snm="S"
V:2 treble nm="Alto" snm="A"
V:3 treble-8 nm="Tenor" snm="T"
V:4 bass nm="Bass" snm="B"
V:1
"^Part 1" A8 | ^c4 c4 | d4 z2 ^c2 | d2 e2 f2 e2 | d4 ^c4 | z2 A2 B2 ^c2 | d4 z2 d2 | %7
w: Fan-|ta- si-|ant a-|mor a mi de-|sco- bre|los grans se-|crets, los|
 e2 ^f2 g2 d2- | d2 e4 f2 | e2 d4 ^c2 | d4 z2 d2 | d4 d4 | c8 | z2 e2 f2 e2 | d2 c2 B4 | %15
w: grans se- crets que~als|_ pus sub-|tils a- ma-|ga, e|mon jorn|clar|als hò- mens|és nit fo-|
 A2 c2 AB c2 | B2 A4 ^G2 | A8- | A8 | z4 z2 e2 | e2 e2 c2 c2 | f2 f2 d2 d2 | e4 A4 | z2 f3 f f2 | %24
w: sca, als hò- mens és|nit fo- *|sca,|_|e|visc de- ço que|per- so- nes no|ta- sten.|Tant en A-|
 e2 c2 e2 e2 | d2 _B2 d4 | ^c4 z2 =c2- | cc c2 B2 G2 | B3 c d2 d2 | ABcd B4 | A4 c4 | d4 _B4 | %32
w: mor l'es- pe- rit|meu con- tem-|pla, Tant|_ en A- mor l'es-|pe- rit meu con-|tem- * * * *|pla, que|par del|
 c4 A4 | _B4 c4 | A4 z2 e2 | f2 d2 e2 c2 | d2 _B2 c2 A2 | B4 A2 d2- | d2 ^c2 d4 | ^c8 | %40
w: tot fo-|ra del|cos, que|par del tot fo-|ra del cos s'a-|par- te, s'a-|* * par-|te,|
 z2 B2 B2 B2 | B4 z2 d2 | d2 d2 ^c4 | z2 ^c2 d2 e2 | f2 e2 d4 | c6 BA | B4 A4 | z2 c2 d2 e2 | %48
w: car mos de-|sigs, car|mos de- sigs|no són tro-|bats en ho-||* me,|si- nó en|
 A2 d2 c2 A2 | _B2 c2 d2 B2 | A2 f3 e e2- | ed d4 ^c2 | d2 A2 c4 | B4 A4 | z2 c2 d2 e2 | %55
w: tal que la carn|punt no'l tor- *|ba, punt _ no'l|_ _ tor- *|ba, si- nó|en tal,|si- nó en|
 A2 d2 c2 A2 | _B2 c2 d2 B2 | A2 f3 e e2- | ed d4 ^c2 | d8- | d8 | ^c8- | c8 ||"^Part 2" d8 | %64
w: tal que la carn|punt no'l tor- *|ba, punt _ no'l|_ _ tor- *|||ba.|_|Si|
 e4 d4 | ^c4 z2 c2 | d4 d2 e2- | e2 c2 d4 | ^c4 z2 =c2- | c2 A2 B4 | c2 e2 c4 | d4 e4 | %72
w: fos A-|mor sub-|stan- ça ra-|* o- na-|ble e|_ que's tro-|bàs, e que's|tro- bàs,|
 z2 f2 f2 d2 | ^c8 | z2 d2 efge | f4 d2 f2 | f2 f2 e2 d2- | d2 ^c2 d4 | z2 A2 BcdB | c4 B2 A2- | %80
w: e que's tro-|bàs|de se- nyo- ri- a|ce- ptre, de|se- nyo- ri- a|_ ce- ptre,|de se- nyo- ri- a|ce- * *|
 A2 G2 A2 F2- | F2 f2 df e2- | ed d4 ^c2 | d8 | B4 B2 c2 | d4 ^c4 | z2 c2 c3 c | _B2 A2 c4 | c8 | %89
w: * * * ptre,|_ de se- nyo- ri-|* a ce- *|ptre,|béns guar- do-|nant _|e pu- nint|los de- mè-|rits,|
 z2 d2 f2 e2- | e2 d4 c2 | B2 A4 ^G2 | A8 | z4 z2 d2 | f2 e2 d4 | d4 e2 ^c2 | d3 c B4 | %97
w: en- tre'ls me-|* llors, en-|tre'ls me- *|llors,|en-|tre'ls me- llors|sols me tro-|ba- ra fè-|
 ABcA Bc d2 | B2 c2 A2 d2- | d2 f3 e e2- | e2 ^d2 e4 | z4 d4 | e2 c2 d2 B2 | c6 B2- | BA A4 ^G2 | %105
w: |* * nix, fè-||* * nix,|sols|me tro- ba- ra|fè- *||
 A4 z2 A2- | A2 d4 B2- | B2 e4 A2 | d2 d2 B2 B2 | e3 d cdec | d4 z2 e2- | e2 f4 d2 | e4 z2 e2 | %113
w: nix, car|_ io tot|_ sols des-|em- pa- re la|me- * * * * *|scla, car|_ io tot|sols des-|
 e2 f4 d2 | d2 e4 d2- | d2 c2 d4 | ^c4 z2 =c2 | B4 A4 | A2 d2 B2 c2 | A2 d2 B4 | A4 z2 d2 | %121
w: em- pa- re|la me- *||scla, de|lleigs de-|sigs qui ab los|bons s'em- bol-|quen, qui|
 e2 c2 d2 d2 | c4 B4 | A2 d2 B2 c2 | A3 B c2 d2- | d2 ^c2 d4 | A4 z4 | z4 d4 | c2 B2 A4 | %129
w: ab los bons s'em-|bol- *|quen, qui ab los|bons s'em- bol- *||quen,|ca-|stic no'm cal|
 z2 A2 B2 c2 | A2 d4 c2 | B4 A3 B | cd e4 d2 | e2 e4 c2- | c2 d2 e2 c2 | d8 | ^c8 | =c8 | B4 ^c4 | %139
w: puis que d'as-|saig no'm tem-|||pten, puis que|_ d'as- saig no'm|tem-|pten:|la|cau- sa|
 d6 cB | A2 A2 B2 ^c2 | d4 z4 | z2 d2 e2 ^f2 | g2 e2 f4 | d2 e4 c2- | c2 f4 e2- | ed d4 ^c2 | %147
w: llur, _ _|_ la cau- sa|llur,|la cau- sa|llur en mi|és fe- ta|_ nul- *||
 d6 cB | A2 A2 B2 ^c2 | d4 z4 | z2 d2 e2 ^f2 | g2 e2 f4 | d2 e4 c2- | c2 f4 e2- | ed d4 ^c2 | d8- | %156
w: la, _ _|_ la cau- sa|llur,|la cau- sa|llur en mi|és fe- ta|_ _ nul-||la.|
 d8 ||"^Part 3" A8 | B4 ^c4 | d8 | z4 A4 | B4 c2 d2- | dcBA G2 c2 | A2 B2 G2 c2 | B2 A4 ^G2 | %165
w: _|Llir|en- tre|cards,|Llir|en- tre cards,|_ _ _ _ _ lo|meu vo- ler se|tem- * *|
 A4 A4 | B4 c3 d | e2 d2 c2 B2 | A2 c2 d4 | A2 d2 f3 f | e2 d4 ^c2 | d4 f4 | e4 d4 | e4 A2 B2 | %174
w: pra, Llir|en- tre _|cards, lo meu vo-|ler se tem-|pra, lo meu vo-|ler se tem-|pra, en|ço que|null a- ma-|
 c4 z2 d2- | d2 c2 d4 | c8- | c4 z2 e2 | e2 e2 c2 cc | f2 f4 e2 | d2 c2 _B4 | A4 z4 | z2 f2 e2 d2 | %183
w: dor sap|_ lo tem-|pre;|_ en|ço que null a- ma-|dor sap lo|tem- * *|pre.|A- mor ho|
 ^c2 c2 d2 d2 | ^c8 | z2 ^c2 d2 d2 | ^c4 z2 e2- | ee e2 d2 e2 | f4 e2 c2 | d2 d2 c4 | z2 A2 A2 A2 | %191
w: fa, A- mor ho|fa,|A- mor ho|fa, que|_ li plau que jo|sen- ta sos|grans tre- sors,|sols a- miels|
 c6 B2 | c2 d2 e4 | c2 f4 e2- | e2 d4 ^c2 | d4 z2 c2 | d2 d2 ^c4 | z2 A2 A2 A2 | c3 B c2 B2- | %199
w: ma- ni-|fe- * *|sta, ma- ni-|* fe- *|sta, sos|grans tre- sors,|sols a- miels|ma- ni- fe- *|
 BA A4 ^G2 | A8- | A8- | A8- | A8- | A8 |] %205
w: |sta.|_||||
V:2
 z8 | A8 | A2 A2 F2 A2 | A2 c2 c3 _B | A4 A2 A2 | G2 F2 G2 E2 | F2 ED C2 A2 | c2 A2 B4 | G4 c3 c | %9
w: |Fan-|ta- si- ant a-|mor a mi de-|sco- bre los|grans se- crets los|grans se- * crets, los|grans se- crets|que~als pus sub-|
 _B2 A2 A4 | F2 _B2 B2 B2 | A8 | z2 E2 F2 E2 | D2 C2 D2 E2 | FG A4 ^G2 | A2 C2 D2 E2 | F2 F2 E4 | %17
w: tils a- ma-|ga, e mon jorn|clar|als hò- mens|és nit fo- *||sca, als hò- mens|és nit fo-|
 C8 | z2 A2 A2 A2 | F2 F2 _B2 B2 | G2 G2 A4 | F2 F2 G4- | G4 F2 A2- | AA A2 A2 A2 | c2 c2 G2 G2 | %25
w: sca,|e visc de-|ço que per- so-|nes no ta-|sten, no ta-|* sten. Tant|_ en A- mor l'es-|pe- rit meu con-|
 _B2 AG F2 G2 | A2 A3 A A2 | E2 E2 G2 G2 | D2 D2 F3 G | AB A4 ^G2 | A4 z2 A2 | D2 D2 G2 G2 | %32
w: tem- * * * *|pla, Tant en A-|mor l'es- pe- rit|meu con- tem- *||pla, que|par del tot fo-|
 C2 C2 F4 | z4 E4 | F2 D2 E2 ^C2 | D2 F2 E2 A2 | F2 G2 E2 A2- | A2 G2 A2 F2 | E4 z4 | z2 A2 A2 A2 | %40
w: ra del cos|que|par del tot fo-|ra del cos s'a-|par- * * *||te,|car mos de-|
 D4 z2 G2 | G2 G2 F4 | z2 A2 A2 A2 | A3 G AB c2 | _BA A4 G2 | A8 | z4 z2 F2 | G2 A2 D2 G2 | %48
w: sigs, car|mos de- sigs|no són tro-|bats en ho- * *||me,|si-|nó en tal que|
 F2 D2 E2 F2 | D2 A4 _B2 | c4 _B4 | A2 G2 A3 G | F4 E4 | z4 z2 F2 | G2 A2 D2 G2 | F2 D2 E2 F2 | %56
w: la carn punt no'l|tor- * *|* ba,|punt no'l tor- *|* ba,|si-|nó en tal que|la carn punt no'l|
 D2 A4 _B2 | c4 _B4 | A2 G2 A4 | F8- | F4 G4 | A8- | A8 || A8 | c4 A4 | A8 | z2 A2 B2 c2 | %67
w: tor- * *|* ba,|punt no'l tor-|ba.|_ _|||Si|fos A-|mor|sub- stan- ça|
 G2 A2 F2 G2 | A4 z2 A2 | A2 A2 G3 F | E2 A4 F2- | F2 G4 A2- | A2 A2 c2 _B2 | A2 A2 AB^cA | B4 G4 | %75
w: ra- o- na- *|ble e|que's tro- bàs, _|_ e que's|_ tro- bàs,|_ e que's tro-|bàs de se- nyo- ri- a|ce- ptre,|
 z2 A2 A4- | A2 A2 G3 F | E4 D2 F2- | FE A4 G2 | A4 G2 F2 | E4 C4 | z2 A2 B2 c2 | A2 G2 A4 | F8 | %84
w: de se-|* nyo- ri- a|ce- ptre, ce-|||* ptre,|de se- nyo-|ri- a ce-|ptre,|
 G4 G2 G2 | F4 E4 | z2 E2 E3 F | G2 A4 G2 | A4 z2 A2 | c2 _B2 A2 A2- | AG G2 A3 G | F2 E3 D D2- | %92
w: béns guar- do-|nant _|e pu- nint|los de- mè-|rits, en-|tre'ls me- llors, en-|* tre'ls me- llors, _|en- * * tre'ls|
 D2 ^C2 D2 A2- | A2 G3 F D2 | A4 F4 | z4 G4 | A2 F2 G3 F | E2 A3 G G2- | G2 FE FG A2 | F3 G A4 | %100
w: _ me- llors, en-|* tre'ls me- *|llors _|sols|me tro- ba- ra|fè- * * *||* * nix,|
 A4 B2 G2 | c2 A2 B4 | A4 z2 G2- | G2 A2 F2 G2 | C3 D E4 | E4 z2 C2 | F4 D4 | G4 E2 E2 | A4 G3 A | %109
w: sols me tro-|ba- ra fè-|nix, sols|_ me tro- ba-|* ra fè-|nix, car|io tot|sols des- em-|pa- re la|
 B4 A4 | z2 A6 | c2 A4 B2 | z2 G2 G2 c2- | c2 A2 A2 B2- | B2 G2 c2 B2- | BA A4 G2 | A4 z2 A2 | %117
w: me- scla,|car|io tot sols|des- em- pa-|* re la me-|* scla, la me-||scla de|
 G4 E4 | F2 F2 G2 E2 | FG A4 ^G2 | A4 z4 | z2 A2 F2 G2 | E2 A4 G2 | F3 E D2 E2 | C2 c3 B A2 | %125
w: lleigs de-|sigs qui ab los|bons s'em- bol- *|quen,|qui ab los|bons s'em- bol-||quen, s'em- * *|
 G2 E2 F4 | z2 A4 G2 | F2 E2 F4 | z4 A4 | G2 F2 E4 | z2 D2 E2 F2 | G2 D2 F4 | E3 F G2 A2- | %133
w: bol- * quen,|ca- stic|no'm _ cal|ca-|stic no'm cal|puis que d'as-|saig no'm tem-||
 A2 G2 A2 A2 | A2 D2 G2 F2- | FG A4 G2 | A8 | A8 | G4 G4 | F4 z4 | z2 F2 G2 A2 | D2 A2 G2 E2 | %142
w: * * pten, puis|que d'as- saig no'm|_ _ tem- *|pten:|la|cau- sa|llur|la cau- sa|llur en mi és|
 F2 G4 A2- | AG G4 F2 | G2 G2 G2 A2- | A2 c2 A2 c2- | c_BAG A4 | F4 z4 | z2 F2 G2 A2 | %149
w: fe- ta nul-||la, en mi és|_ fe- ta nul-||la,|la cau- sa|
 D2 A2 G2 E2 | F2 G4 A2- | AG G4 F2 | G2 G2 G2 A2- | A2 c2 A2 c2- | c_BAG A4 | F8- | F8 || z4 D4- | %158
w: llur en mi és|fe- ta nul-||la, en mi és|_ fe- ta nul-||la.|_|Llir|
 D4 E4 | F6 ED | G4 z2 D2- | D2 E4 F2- | F2 G4 F2- | FEDC D2 E2 | F4 z4 | E4 F4 | G4 A2 c2 | %167
w: _ en-|tre _ _|cards, Llir|_ en- tre|_ cards, Llir|_ _ _ _ en- tre|cards,|Llir en-|tre cards, lo|
 c2 B2 A2 G2 | A2 G2 z2 A2 | A2 G2 F2 A2- | AG G2 A4 | F4 z2 A2- | A2 G4 F2- | F2 E4 D2- | %174
w: meu vo- ler se|tem- pra, lo|meu vo- ler se|_ _ _ tem-|pra, en|_ ço que|_ null a-|
 DD C2 D2 E2 | C2 c2- cB A2- | A2 G2 A4- | A4 A4 | z2 A2 A2 A2 | F2 FF c4 | _B2 A2 G4 | F4 z4 | %182
w: * ma- dor sap lo|tem- * * * *||* pre;|en ço que|null a- ma- dor|sap lo tem-|pre.|
 z2 A2 G2 F2 | E2 A2 F2 G2 | A8 | z2 A2 F2 G2 | A2 A2- AA A2 | G2 A2 _B2 A2 | z2 A2 A2 A2 | %189
w: A- mor ho|fa, A- mor ho|fa,|A- mor ho|fa, que _ li plau|que jo sen- ta|sos grans tre-|
 GFED E2 E2 | F2 F2 E2 C2 | CDEF G3 F | E2 A4 ^G2 | A4 z2 A2 | F2 D2 A4 | z4 z2 A2 | A2 G2 A2 E2 | %197
w: sors, _ _ _ _ sols|a- miels ma- ni-|fe- * * * * *||sta, sos|grans tre- sors,|sos|grans tre- sors, sols|
 F2 F2 E2 C2 | CDEF G3 F | E2 D2 E4 | C4 z2 D2 | F3 E D2 C2 | D2 E2 F4 | E8- | E8 |] %205
w: a- miels ma- ni-|fe- * * * * *||sta, sols|a- miels ma- ni-|fe- * *|sta.|_|
V:3
 e8 | e4 e4 | f4 z2 e2 | f2 g2 a2 g2 | f4 e2 A2 | B2 ^c2 d2 cB | A2 d2 e2 f2 | g2 ^fe d2 g2- | %8
w: Fan-|ta- si-|ant a-|mor a mi de-|sco- bre los|grans se- crets, _ _|_ los grans se-|crets _ _ _ que~als|
 g2 e4 a2 | g2 f2 e4 | d4 z2 d2 | f4 f4 | e4 z2 e2 | f2 e2 d2 c2 | d4 e4 | A2 e2 f2 e2 | d3 c B4 | %17
w: _ pus sub-|tils a- ma-|ga, e|mon jorn|clar als|hò- mens és nit|fo- *|sca, als hò- mens|és nit fo-|
 A2 e2 e2 e2 | c2 c2 f2 f2 | d2 d2 g3 f | ed c3 d ec | d2 A2 Bc d2- | d2 ^c2 d4- | d4 z2 a2- | %24
w: sca, e visc de-|ço que per- so-|nes no ta- *||sten, no ta- * *|* * sten.|_ Tant|
 aa a2 e2 g2- | gg g2 d2 d2 | f4 e4 | z2 e3 e e2 | B2 d3 d d2 | c2 A2 e4 | c2 e4 f2- | f2 d4 e2- | %32
w: _ en A- mor l'es-|* pe- rit meu con-|tem- pla,|Tant en A-|mor l'es- pe- rit|meu con- tem-|pla, que par|_ del tot|
 e2 c2 d2 f2 | e2 d4 c2 | d4 z4 | z4 e2 f2 | d2 e2 c2 d2 | B2 e2 A2 a2- | ag e2 f4 | e8 | %40
w: _ fo- ra del|cos s'a- par-|te,|que par|del tot fo- ra|del cos s'a- par-||te,|
 z2 d2 d2 d2 | d4 z2 f2 | f2 f2 e4 | z2 e2 f2 e2 | d2 ^c2 d4 | e4 z2 c2 | d2 e2 A2 d2 | %47
w: car mos de-|sigs, car|mos de- sigs|no són tro-|bats en ho-|me, si-|nó en tal que|
 c2 A2 _B2 c2 | d2 _B2 A2 d2- | d2 c2 f2 f2 | e2 a4 g2 | f2 ed e4 | d4 z2 c2 | d2 e2 A2 d2 | %54
w: la carn punt no'l|tor- * ba, que|_ la carn punt|no'l tor- *||ba, si-|nó en tal que|
 c2 A2 B2 c2 | d2 _B2 A2 d2- | d2 c2 f2 f2 | e2 a4 g2 | f2 ed e4 | d8- | d8 | e8- | e8 || f8 | %64
w: la carn punt no'l|tor- * ba, que|_ la carn punt|no'l tor- *||||ba.|_|Si|
 g4 f4 | e4 e2 a2- | a2 f2 g4 | e2 f4 ed | e2 e4 c2- | c2 d4 e2- | edcB A2 a2 | a2 g2 e4 | z8 | %73
w: fos A-|mor sub- stan-|* ça ra-|o- na- * *|ble e que's|_ tro- bàs,|_ _ _ _ _ e|que's tro- bàs||
 z2 f2 f2 f2 | e2 d4 ^c2 | d4 z2 d2 | d2 A2 c2 d2 | A4 d2 a2 | g2 f2 gfed | e4 d3 c | B4 A2 a2 | %81
w: de se- nyo-|ri- a ce-|ptre, de|se- nyo- ri- a|ce- ptre, de|se- nyo- ri- * a _|ce- * *|* ptre, de|
 fgaf g4 | f2 d2 e4 | d8 | d4 d2 e2 | A4 z2 A2 | c2 A2 c3 d | e2 f4 e2 | f8 | z8 | z2 d2 f2 e2 | %91
w: se- nyo- ri- a ce-||ptre,|béns guar- do-|nant e|pu- nint los de-|mè- * *|rits,||en- tre'ls me-|
 d2 A2 c2 _B2 | A4 d2 f2- | f2 e4 d2- | d2 ^c2 d2 d2 | f4 e4 | d8 | z4 d4 | e2 c2 d3 c | B4 A4 | %100
w: llors, en- tre'ls me-|llors, en- tre'ls|_ _ _|* me- llors, en-|tre'ls me-|llors|sols|me tro- ba- ra|fè- nix,|
 z4 g4 | a2 f2 g3 f | e4 d2 d2 | e3 d c2 d2 | ABcA B4 | A4 z2 A2 | d4 B4 | e4 c2 c2 | f4 d2 d2 | %109
w: sols|me tro- ba- ra|fè- nix, sols|me tro- ba- ra|fè- * * * *|nix, car|io tot|sols des- em-|pa- re la|
 g3 f e2 c2 | f4 e2 e2 | a4 f2 g2- | g2 e2 e2 a2- | a2 f2 f2 g2- | gfed e2 f2- | fe e4 d2 | %116
w: me- * * *|* scla, car|io tot sols|_ des- em- pa-|* re la me-|||
 e4 z2 A2 | B4 ^c4 | d2 d2 e2 c2 | d2 f2 e4 | A2 a2 f2 g2 | g2 e2 d4 | e2 c2 d2 e2 | A2 a4 g2- | %124
w: scla de|lleigs de-|sigs qui ab los|bons s'em- bol-|quen, qui ab los|bons s'em- bol-|quen, s'em- bol- *|quen, qui ab|
 g2 f2 e2 d2 | e4 d4 | f4 e2 d2 | c4 z2 A2 | A2 B2 c2 d2 | e2 f2 g4 | f4 e2 c2 | d8 | z4 d4 | %133
w: _ los bons s'em-|bol- quen,|ca- stic no'm|cal puis|que d'as- saig no'm|tem- * *||pten,|ca-|
 c2 B2 A2 e2 | f2 f2 e2 a2- | agfe dcde | f4 e4 | f8 | d4 e4 | A2 A2 B2 c2 | d4 z4 | z2 A2 B2 ^c2 | %142
w: stic no'm cal puis|que d'as- saig no'm|_ _ _ _ _ _ _ _|tem- pten:|la|cau- sa|llur, la cau- sa|llur,|la cau- sa|
 d4 z2 A2 | B2 ^c2 d4 | B4 c4 | A2 a2 a2 a2 | g2 f2 e4 | d2 A2 B2 c2 | d4 z4 | z2 A2 B2 ^c2 | %150
w: llur en|mi és fe-|ta nul-|la, en mi és|fe- ta nul-|la, la cau- sa|llur,|la cau- sa|
 d4 z2 A2 | B2 ^c2 d4 | B4 c4 | A2 a2 a2 a2 | g2 f2 e4 | d8- | d8 || z8 | z4 A4- | A4 B4 | c4 d4 | %161
w: llur en|mi és fe-|ta nul-|la, en mi és|fe- ta nul-|la.|_||Llir|_ en-|tre cards,|
 z4 A4 | B4 c4 | d2 d2 d2 c2 | d2 f2 e2 d2 | c4 z4 | d4 e2 f2 | g2 G2 A2 B2 | c4 z2 d2 | %169
w: Llir|en- tre|cards, lo meu vo-|ler se tem- *|pra,|Llir en- tre|cards, Llir en- tre|cards, lo|
 c2 B2 A3 B | c2 d2 e4 | d4 d4 | c4 B4 | A3 B c2 d2 | e2 f4 g2 | a3 g/f/ e2 f2- | f2 e2 f4 | %177
w: meu vo- ler se|tem- * *|pra, en|ço que|null a- * ma-|dor sap lo|tem- * * * *|* * pre;|
 z2 e2 e2 e2 | c2 cc f4 | a3 g fe g2- | gf f4 e2 | f2 f2 e2 d2 | ^c4 z4 | z2 f2 d2 d2 | e4 z2 e2- | %185
w: en ço que|null a- ma- dor|sap lo tem- * *||pre. A- mor ho|fa,|A- mor ho|fa, que|
 ee e2 d3 e | f4 e2 c2- | cc c2 _B2 c2 | d4 c2 A2 | B2 B2 A2 c2 | d2 d2 c2 A2 | e6 d2 | c2 BA B4 | %193
w: _ li plau que jo|sen- ta que|_ li plau que jo|sen- ta sos|grans tre- sors, sols|a- miels ma- ni-|fe- *||
 A2 d4 c2 | d4 z2 e2 | f2 f2 e2 dc | _BA B2 A2 ^c2 | d2 d2 c2 A2 | e6 d2 | c2 BA B4 | A2 e2 f3 e | %201
w: |sta, sos|grans tre- sors, _ _|_ _ _ _ sols|a- miels ma- ni-|fe- *||sta, sols a- miels|
 d2 c2 d2 e2 | f2 e2 d4- | d2 ^cB c3 d | ^c8 |] %205
w: ma- ni- fe- *|||sta.|
V:4
 A,8 | A,4 A,4 | D,4 z2 A,2 | D2 D2 F,2 C2 | D4 A,4 | z2 A,2 G,2 A,2 | D,4 z2 D2 | C2 D2 G,2 G,2- | %8
w: Fan-|ta- si-|ant a-|mor a mi de-|sco- bre|los grans se-|crets, los|grans se- crets que~als|
 G,2 C4 F,2 | G,2 D,2 A,4 | D,2 G,2 G,2 G,2 | D,3 E, F,3 G, | A,8 | z8 | z4 z2 E,2 | %15
w: _ pus sub-|tils a- ma-|ga, e mon jorn|clar _ _ _|_||als|
 F,2 E,2 D,2 C,2 | D,4 E,4 | A,4 z2 A,2 | A,2 A,2 F,2 F,2 | _B,2 B,2 G,2 G,2 | C3 _B, A,G,F,E, | %21
w: hò- mens és nit|fo- *|sca, e|visc de- ço que|per- so- nes no|ta- * * * * *|
 D,2 D,2 G,3 F, | E,4 D,4 | z2 D3 D D2 | A,2 C3 C C2 | G,2 G,2 _B,4 | A,4 z2 A,2- | %27
w: sten, no ta- *|* sten.|Tant en A-|mor l'es- pe- rit|meu con- tem-|pla, Tant|
 A,A, A,2 E,2 E,2 | G,2 G,2 D,2 D,2 | F,4 E,4 | A,4 z2 A,2 | _B,4 G,4 | A,4 F,4 | G,4 A,4 | %34
w: _ en A- mor l'es-|pe- rit meu con-|tem- *|pla, que|par del|tot fo-|ra del|
 D,2 F,2 E,4 | D,4 z2 A,2 | _B,2 G,2 A,2 F,2 | G,2 E,2 F,2 D,2 | A,4 D,4 | A,8 | z2 G,2 G,2 G,2 | %41
w: cos s'a- par-|te, que|par del tot fo-|ra del cos s'a-|par- *|te,|car mos de-|
 G,4 z2 D,2 | D,2 D,2 A,4 | z2 A,2 D2 C2 | D2 A,2 _B,4 | A,8 | z8 | z8 | z4 z2 F,2 | %49
w: sigs, car|mos de- sigs|no són tro-|bats en ho-|me,|||si-|
 G,2 A,2 D,2 D2 | C2 A,2 _B,2 C2 | D2 _B,2 A,4 | D,4 z4 | z8 | z8 | z4 z2 F,2 | G,2 A,2 D,2 D2 | %57
w: nó en tal que|la carn punt no'l|tor- * *|ba,|||si-|nó en tal que|
 C2 A,2 _B,2 C2 | D2 _B,2 A,4 | D,8- | D,8 | A,8- | A,8 || D8 | C4 D4 | A,4 z2 A,2 | D4 G,2 C2- | %67
w: la carn punt no'l|tor- * *|ba.|_|||Si|fos A-|mor sub-|stan- ça ra-|
 C2 F,2 _B,4 | A,4 z2 A,2 | F,4 G,4 | A,8 | z4 z2 A,2- | A,2 F,4 G,2 | A,2 A,2 A,2 A,2 | %74
w: * o- na-|ble e|que's tro-|bàs,|e|_ que's tro-|bàs de se- nyo-|
 G,3 F, E,4 | D,8 | z8 | z2 A,2 B,CDB, | C2 D2 B,4 | A,4 z2 D,2 | E,F,G,E, F,4 | D,2 D2 D2 C2 | %82
w: ri- a ce-|ptre,||de se- nyo- ri- a|ce- * *|ptre, de|se- nyo- ri- a ce-|ptre, de se- nyo-|
 D2 _B,2 A,4 | D,8 | G,4 G,2 E,2 | D,E,F,G, A,4 | z2 A,2 A,3 A, | G,2 F,2 C4 | F,8 | z4 z2 A,2 | %90
w: ri- a ce-|ptre,|béns guar- do-|nant _ _ _ _|e pu- nint|los de- mè-|rits,|en-|
 C2 _B,2 A,4 | z4 z2 D2 | F2 E2 D2 A,2 | C4 _B,4 | A,4 D,4 | z8 | z4 G,4 | A,2 F,2 G,3 F, | %98
w: tre'ls me- llors,|en-|tre'ls me- llors, en-|tre'ls me-|llors _||sols|me tro- ba- ra|
 E,4 D,4 | D4 E2 C2 | D2 F2 E4 | A,4 z4 | A,4 B,2 G,2 | C3 B, A,2 G,2 | F,4 E,4 | A,8 | %106
w: fè- nix,|sols me tro-|ba- ra fè-|nix,|sols me tro-|ba- * * ra|fè- *|nix,|
 z2 D,4 G,2- | G,2 E,2 A,4 | D,2 D,2 G,4 | E,2 E,2 A,4 | D,4 z2 A,2- | A,2 D4 G,2 | C4 z2 A,2 | %113
w: car io|_ tot sols|des- em- pa-|re la me-|scla, car|_ io tot|sols des-|
 A,2 D4 G,2 | G,2 C3 A, D2- | DC A,2 B,4 | A,4 z2 F,2 | G,4 A,4 | D,4 z4 | z8 | z2 A,2 _B,2 G,2 | %121
w: em- pa- re|la me- * *||scla de|lleigs de-|sigs||qui ab los|
 C2 A,2 _B,4 | A,4 z2 E,2 | F,2 D,2 G,2 E,2 | F,3 G, A,2 F,2 | G,2 A,2 D,4 | D4 C2 _B,2 | %127
w: bons s'em- bol-|quen, qui|ab los bons s'em-|bol- * * *|* * quen,|ca- stic no'm|
 A,4 z2 D,2 | F,2 G,2 A,2 B,2 | C2 D4 C2 | D2 D,2 A,4 | G,4 z4 | A,4 G,2 F,2 | E,4 z2 A,2 | %134
w: cal puis|que d'as- saig no'm|tem- * *|pten, no'm tem-|pten,|ca- stic no'm|cal puis|
 A,2 B,2 C2 A,2 | D3 C _B,4 | A,8 | F,8 | G,4 E,4 | D,2 F,2 G,2 A,2 | D,4 z4 | z2 F,2 G,2 A,2 | %142
w: que d'as- saig no'm|tem- * *|pten:|la|cau- sa|llur, la cau- sa|llur,|la cau- sa|
 D,2 G,2 G,2 ^F,2 | E,4 D,4 | G,4 E,2 A,2 | A,2 F,3 G, A,_B, | C2 D2 A,4 | D,2 F,2 G,2 A,2 | %148
w: llur en mi és|fe- ta|nul- la, en|mi és _ _ _|fe- ta nul-|la, la cau- sa|
 D,4 z4 | z2 F,2 G,2 A,2 | D,2 G,2 G,2 ^F,2 | E,4 D,4 | G,4 E,2 A,2 | A,2 F,3 G, A,_B, | %154
w: llur,|la cau- sa|llur en mi és|fe- ta|nul- la, en|mi és _ _ _|
 C2 D2 A,4 | D,8- | D,8 || z8 | z8 | D,8 | E,4 F,4 | G,4 z2 D,2- | D,2 E,4 F,2- | %163
w: fe- ta nul-|la.|_|||Llir|en- tre|cards, Llir|_ en- tre|
 F,2 G,2- G,F, E,2 | D,2 D2 C2 B,2 | A,2 C2 D3 C | B,A, B,2 A,4 | G,4 z2 G,2 | F,2 E,2 D,3 E, | %169
w: _ cards, _ _ _|_ lo meu vo-|ler se tem- *||pra, lo|meu vo- ler _|
 F,2 G,2 D,E,F,G, | A,2 _B,2 A,4 | D,8 | z4 z2 D2- | D2 C4 B,2 | A,4 B,2 G,2 | F,2 A,4 F,2 | %176
w: _ se tem- * * *||pra,|en|_ ço que|null a- ma-|dor sap lo|
 C4 F,3 G, | A,8 | z8 | z8 | z8 | z2 D2 C2 _B,2 | A,4 z4 | z2 F,2 _B,2 B,2 | A,2 A,2- A,A, A,2 | %185
w: tem- pre; _|_||||A- mor ho|fa,|A- mor ho|fa, que _ li plau|
 G,2 A,2 _B,4 | A,8 | z4 z2 A,2 | F,2 D,2 A,4 | z4 z2 A,2 | F,2 D,2 A,2 A,2- | A,2 C4 G,2 | %192
w: que jo sen-|ta|sos|grans tre- sors,|sos|grans tre- sors, sols|_ a- miels|
 A,2 F,2 E,4 | F,2 D,2 A,4 | D,4 z2 A,2 | F,2 D,2 A,4 | z4 z2 A,2 | F,2 D,2 A,2 A,2- | A,2 C4 G,2 | %199
w: ma- ni- fe-||sta, sos|grans tre- sors,|sos|grans tre- sors, sols|_ a- miels|
 A,2 F,2 E,4 | A,4 z2 D,2- | D,2 F,4 E,2 | D,2 C,2 D,4 | A,8- | A,8 |] %205
w: ma- ni- fe-|sta, sols|_ a- miels|ma- ni- fe-|sta.|_|

